src/assets/img/phone.svg

<svg width="12" height="12" viewBox="0 0 12 12" fill="none" xmlns="http://www.w3.org/2000/svg">
<g clip-path="url(#clip0_156_2093)">
<path d="M11.0002 8.46005V9.96005C11.0008 10.0993 10.9723 10.2371 10.9165 10.3647C10.8607 10.4923 10.7789 10.6068 10.6762 10.701C10.5736 10.7951 10.4525 10.8668 10.3206 10.9114C10.1887 10.956 10.0489 10.9726 9.91021 10.96C8.37163 10.7929 6.89371 10.2671 5.59521 9.42505C4.38712 8.65738 3.36288 7.63313 2.59521 6.42505C1.7502 5.12065 1.22433 3.63555 1.06021 2.09005C1.04772 1.95178 1.06415 1.81243 1.10846 1.68086C1.15277 1.54929 1.224 1.42839 1.31759 1.32586C1.41119 1.22332 1.52511 1.1414 1.65211 1.08531C1.7791 1.02922 1.91638 1.00018 2.05521 1.00005H3.55521C3.79786 0.99766 4.03311 1.08359 4.21709 1.24181C4.40108 1.40004 4.52125 1.61977 4.55521 1.86005C4.61852 2.34008 4.73594 2.81141 4.90521 3.26505C4.97248 3.44401 4.98704 3.63851 4.94716 3.82549C4.90729 4.01247 4.81464 4.1841 4.68021 4.32005L4.04521 4.95505C4.75699 6.20682 5.79344 7.24327 7.04521 7.95505L7.68021 7.32005C7.81616 7.18562 7.98779 7.09297 8.17477 7.0531C8.36175 7.01322 8.55625 7.02778 8.73521 7.09505C9.18885 7.26432 9.66018 7.38174 10.1402 7.44505C10.3831 7.47931 10.6049 7.60165 10.7635 7.7888C10.922 7.97594 11.0063 8.21484 11.0002 8.46005Z" stroke="#7A7ED0" stroke-linecap="round" stroke-linejoin="round"/>
</g>
<defs>
<clipPath id="clip0_156_2093">
<rect width="12" height="12" fill="white"/>
</clipPath>
</defs>
</svg>

<svg xmlns="http://www.w3.org/2000/svg" width="12" height="12" fill="none" viewBox="0 0 12 12">
  <g clip-path="url(#a)">
    <path stroke="#7A7ED0" stroke-linecap="round" stroke-linejoin="round" d="M11.0002 8.46v1.5a.999.999 0 0 1-.324.741 1 1 0 0 1-.766.259 9.8942 9.8942 0 0 1-4.315-1.535 9.75 9.75 0 0 1-3-3 9.895 9.895 0 0 1-1.535-4.335A1.0001 1.0001 0 0 1 2.0552 1h1.5a1 1 0 0 1 1 .86c.0633.48.1807.9514.35 1.405a1 1 0 0 1-.225 1.055l-.635.635a8 8 0 0 0 3 3l.635-.635a1 1 0 0 1 1.055-.225c.4536.1693.925.2867 1.405.35a1 1 0 0 1 .86 1.015Z"/>
  </g>
  <defs>
    <clipPath id="a">
      <path fill="#fff" d="M0 0h12v12H0z"/>
    </clipPath>
  </defs>
</svg>
